X: 23655
T: Limerick, The
R: slide
M: 12/8
K: Gmajor
DEF GAB e2 ^c A2 G|FAF EFE DFA d2 A|
DEF GAB e2 ^c A2 G|FGF DEF G3 G3:|
BcB B2 A BcB B2 A|G3 BAG A2 G E2 D|
BcB B2 A BcB B3|GFE FED B3 B3|

